X: 8266
T: Corkscrew Hill
R: jig
M: 6/8
K: Dmajor
|:F|ABA AFD|A^GB AFD|ecA dcA|^GAB E2F|
ABA AFD|A^GB AG=G|FAd ^GBe|cAA A2:|
K:ADor
|:B|cBA BAG|EGC DGB|cBA BAG|EFG A2B|
cBA BAG|ABA GAB|cde =fed|ecB A2:|

